X: 11781
P: Copyright.
M: 3/4
L: 1/8
K: G
|:\
(d2B2)c2 | d4d2 | (d2g2)f2 | {f2}e6 |\
(e2A2)B2 | c4e2 | (e2d2)G2 | (F2e2)d2 |\
(d2B2)c2 | d4d2 | (d2b2)a2 | a4g2 |\
(gfedcB) | AB c^c d^d | (e2d2)F2 | G6 :|
|:\
(A2F2)G2 | A6 | A2d2^c2 | B6 |\
(d2B2)c2 | d4d2 | (d2b2)a2 | a4g2 |\
(gfedcB) | AB c^c d^d | (e2d2)F2 | G6 :|


